;TIME:2241.44
;Filament used:2.81380m
;Layer height:0.200
; HEADER_BLOCK_START
; generated by Creality_Print V6.3.0.3417 on 2025-09-30 at 15:55:02
; total layer number: 48
; filament_density: 1.24
; filament_diameter: 1.75
; max_z_height: 9.60
; creality_uuid: 8cc54e35-cc08-4e82-b019-20197afdc112
; HEADER_BLOCK_END

; MINX = 85.84
; MINY = 10.44
; MINZ = 0.00
; MAXX = 130.45
; MAXY = 209.50
; MAXZ = 9.65

; multicolor_method = 0 
; THUMBNAIL_BLOCK_START

;
; THUMBNAIL_BLOCK_END

; THUMBNAIL_BLOCK_START

;
; THUMBNAIL_BLOCK_END

; external perimeters extrusion width = 0.42mm
; perimeters extrusion width = 0.45mm
; infill extrusion width = 0.45mm
; solid infill extrusion width = 0.42mm
; top infill extrusion width = 0.42mm
; support material extrusion width = 0.40mm
; first layer extrusion width = 0.50mm

; EXECUTABLE_BLOCK_START
M73 P0 R37
M201 X5000 Y5000 Z500 E5000
M203 X500 Y500 Z30 E100
M204 P5000 R2500 T5000 ; sets acceleration (P, T) and retract acceleration (R), mm/sec^2
M205 X10.00 Y10.00 Z0.40 E5.00 ; sets the jerk limits, mm/sec
; max_print_temp = 50,190
;TYPE:Custom
M220 S100 ;Reset Feedrate 
M221 S100 ;Reset Flowrate 
 
M140 S50 ;Set final bed temp 
G28 ;Home 
 
G92 E0 ;Reset Extruder 
G1 Z2.0 F3000 ;Move Z Axis up 
M104 S190 ;Set final nozzle temp 
G1 X-2.1 Y20 Z0.28 F5000.0 ;Move to start position 
M190 S50 ;Wait for bed temp to stabilize 
M109 S190 ;Wait for nozzle temp to stabilize 
G1 X-2.1 Y145.0 Z0.28 F1500.0 E15 ;Draw the first line 
G1 X-2.4 Y145.0 Z0.28 F5000.0 ;Move to side a little 
G1 X-2.4 Y20 Z0.28 F1500.0 E30 ;Draw the second line 
G92 E0  ;Reset Extruder 
G1 E-1.0000 F1800 ;Retract a bit 
G1 Z2.0 F3000 ;Move Z Axis up 
G1 E0.0000 F1800
G90
G21
M83 ; use relative distances for extrusion
;filament start gcode
G1 E-1.2 F2400
G1 Z.2 F9000
M106 S0
;LAYER_CHANGE
;Z:0.2
;HEIGHT:0.2
;BEFORE_LAYER_CHANGE
;0.2
G92 E0

;_SET_FAN_SPEED_CHANGING_LAYER
M204 P500
M205 X10 Y10
; printing object espada chinesa.stl id:0 copy 0
M204 T500
G1 X90.075 Y48.042 Z.4 F9000
G1 Z.2
G1 E1.2 F1800
;TYPE:Support
;WIDTH:0.5
G1 X92.932 Y48.042 E.10316
G1 X92.932 Y50.899 E.10316
G1 X95.789 Y50.899 E.10316
G1 X95.789 Y53.756 E.10316
G1 X98.646 Y53.756 E.10316
G1 X98.646 Y62.97 E.33268
G1 X97.146 Y62.97 E.05415
G1 X97.146 Y60.97 E.07221
G1 X93.432 Y60.97 E.13411
G1 X93.432 Y63.327 E.08511
G1 X89.075 Y63.327 E.15731
G1 X89.075 Y60.47 E.10316
G1 X86.218 Y60.47 E.10316
G1 X86.218 Y54.756 E.20632
G1 X83.361 Y54.756 E.10316
G1 X83.361 Y45.185 E.34557
G1 X90.075 Y45.185 E.24241
G1 X90.075 Y47.973 E.10068
G1 X97.989 Y62.764 F9000
G1 F1800
G1 X97.989 Y54.167 E.3104
G1 X97.481 Y54.167 E.01834
G1 X97.481 Y60.559 E.23076
G1 X96.973 Y60.559 E.01834
G1 X96.973 Y54.167 E.23076
G1 X96.465 Y54.167 E.01834
G1 X96.465 Y60.559 E.23076
G1 X95.957 Y60.559 E.01834
G1 X95.957 Y54.167 E.23076
G1 X95.449 Y54.167 E.01834
G1 X95.449 Y60.559 E.23076
G1 X94.941 Y60.559 E.01834
G1 X94.941 Y51.31 E.33392
G1 X94.433 Y51.31 E.01834
G1 X94.433 Y60.559 E.33392
G1 X93.926 Y60.559 E.01834
G1 X93.926 Y51.31 E.33392
G1 X93.418 Y51.31 E.01834
G1 X93.418 Y60.559 E.33392
G1 X93.02 Y60.559 E.01435
G1 X93.02 Y62.916 E.08511
G1 X92.91 Y62.916 E.00399
G1 X92.91 Y51.31 E.41902
G1 X92.52 Y51.31 E.01406
G1 X92.52 Y48.453 E.10316
G1 X92.402 Y48.453 E.00428
G1 X92.402 Y62.916 E.52218
G1 X91.894 Y62.916 E.01834
G1 X91.894 Y48.453 E.52218
G1 X91.386 Y48.453 E.01834
G1 X91.386 Y62.916 E.52218
G1 X90.878 Y62.916 E.01834
G1 X90.878 Y48.453 E.52218
G1 X90.371 Y48.453 E.01834
G1 X90.371 Y62.916 E.52218
G1 X89.863 Y62.916 E.01834
G1 X89.863 Y48.453 E.52218
G1 X89.663 Y48.453 E.0072
G1 X89.663 Y45.596 E.10316
G1 X89.355 Y45.596 E.01114
G1 X89.355 Y60.059 E.52218
G1 X88.847 Y60.059 E.01834
G1 X88.847 Y45.596 E.52218
G1 X88.339 Y45.596 E.01834
M73 P0 R36
G1 X88.339 Y60.059 E.52218
G1 X87.831 Y60.059 E.01834
M73 P1 R36
G1 X87.831 Y45.596 E.52218
G1 X87.323 Y45.596 E.01834
G1 X87.323 Y60.059 E.52218
G1 X86.815 Y60.059 E.01834
G1 X86.815 Y45.596 E.52218
G1 X86.308 Y45.596 E.01834
G1 X86.308 Y54.345 E.31587
G1 X85.8 Y54.345 E.01834
G1 X85.8 Y45.596 E.31587
G1 X85.292 Y45.596 E.01834
G1 X85.292 Y54.345 E.31587
G1 X84.784 Y54.345 E.01834
G1 X84.784 Y45.596 E.31587
G1 X84.276 Y45.596 E.01834
G1 X84.276 Y54.55 E.32329
G1 E-1.2 F2400
;WIPE_START
G1 F1800
G1 X84.276 Y52.55
;WIPE_END
G1 X87.131 Y55.082 Z.4 F9000
G1 X94.254 Y61.399 Z.4
G1 Z.2
G1 E1.2 F1800
;TYPE:Support interface
;WIDTH:0.4
G1 X93.86 Y61.399 E.0111
G1 X93.86 Y69.97 E.24177
G1 X94.433 Y69.97 E.01614
G1 X94.433 Y61.399 E.24177
G1 X95.111 Y61.399 E.01914
G1 E-1.2 F2400
;WIPE_START
G1 F1800
G1 X94.433 Y61.399
G1 X94.433 Y62.72
;WIPE_END
G1 X96.325 Y61.399 Z.4 F9000
G1 Z.2
G1 E1.2 F1800
G1 X96.718 Y61.399 E.01106
G1 X96.718 Y66.587 E.14634
G1 X96.325 Y66.602 E.01108
G1 X95.468 Y66.634 F9000
G1 F1800
G1 X96.147 Y66.608 E.01916
G1 X96.147 Y61.399 E.14695
G1 X95.29 Y61.399 E.02418
G1 X95.29 Y66.641 E.14786
G2 X94.74 Y66.971 I-.11 J.44 E.02011
G1 X94.816 Y69.056 E.05884
G2 X95.29 Y69.348 I.383 J-.091 E.01743
G1 X95.29 Y69.97 E.01755
G1 X96.147 Y69.97 E.02418
G1 X96.147 Y69.315 E.01846
G1 X96.718 Y69.294 E.01611
G1 X96.718 Y69.97 E.01907
G1 X96.325 Y69.97 E.01106
G1 E-1.2 F2400
;WIPE_START
G1 F1800
G1 X96.718 Y69.97
G1 X96.718 Y69.294
G1 X96.147 Y69.315
G1 X96.147 Y69.676
;WIPE_END
G1 X93.432 Y69.915 Z.4 F9000
G1 Z.2
G1 E1.2 F1800
;TYPE:Support
;WIDTH:0.5
G1 X93.27 Y69.765 E.00795
G1 X93.144 Y66.388 E.12204
G1 X93.432 Y66.077 E.0153
G1 X93.432 Y69.847 E.13611
G1 E-1.2 F2400
;WIPE_START
G1 F1800
G1 X93.432 Y67.847
;WIPE_END
G1 X97.078 Y66.721 Z.4 F9000
G1 X97.334 Y66.642 Z.4
G1 Z.2
G1 E1.2 F1800
G1 X97.146 Y66.649 E.00678
G1 X97.146 Y65.604 E.03774
G1 X98.338 Y65.559 E.04307
G1 X97.381 Y66.592 E.05085
G1 E-1.2 F2400
;WIPE_START
G1 F1800
G1 X98.338 Y65.559
G1 X97.747 Y65.581
;WIPE_END
G1 X101.44 Y64.617 Z.4 F9000
G1 X102.825 Y64.256 Z.4
G1 Z.2
G1 E1.2 F1800
;TYPE:Support interface
;WIDTH:0.4
G1 X102.432 Y64.256 E.01109
G1 X102.432 Y24.257 E1.12825
G1 X103.003 Y24.257 E.01613
G1 X103.003 Y64.256 E1.12825
G1 X103.86 Y64.256 E.02418
G1 X103.86 Y24.257 E1.12825
G1 X104.718 Y24.257 E.02418
G1 X104.718 Y64.256 E1.12825
G1 X105.289 Y64.256 E.01611
G1 X105.289 Y66.263 E.05663
G1 X105.575 Y66.253 E.00807
G1 X105.575 Y18.542 E1.34575
G1 X106.432 Y18.542 E.02418
G1 X106.432 Y55.534 E1.04341
G1 X106.283 Y55.647 E.00527
G2 X106.432 Y56.14 I.268 J.188 E.01673
G1 X106.432 Y56.632 E.01388
G2 X106.173 Y57.194 I.09 J.382 E.02009
G3 X106.432 Y57.825 I-.124 J.419 E.02206
G2 X106.432 Y58.775 I.119 J.475 E.0366
G2 X106.432 Y60 I.382 J.612 E.04123
G2 X106.419 Y61.302 I.506 J.656 E.04227
G2 X106.301 Y62.516 I.57 J.668 E.03804
G2 X106.432 Y63.739 I.512 J.564 E.04037
G1 X106.432 Y66.22 E.06999
G1 X107.289 Y66.188 E.02419
G1 X107.289 Y63.944 E.0633
G2 X108.146 Y63.973 I.656 J-6.65 E.02421
G1 X108.146 Y66.156 E.06156
G1 X109.003 Y66.123 E.02419
G1 X109.003 Y63.798 E.06559
G2 X109.587 Y63.583 I-.05 J-1.035 E.01784
G1 E-1.2 F2400
;WIPE_START
G1 F1800
G1 X109.003 Y63.798
G1 X109.003 Y65.175
;WIPE_END
G1 X108.984 Y62.651 Z.4 F9000
G1 Z.2
G1 E1.2 F1800
;TYPE:Support
;WIDTH:0.5
G1 X108.94 Y62.647 E.00163
G1 X108.951 Y61.547 F9000
G1 F1800
G1 X108.97 Y62.176 E.0227
G1 X108.799 Y62.226 E.00643
G1 X108.817 Y62.564 E.0122
G1 X108.544 Y62.378 E.01192
G2 X108.665 Y61.494 I-.194 J-.477 E.03901
G1 X108.884 Y61.535 E.00803
G1 X108.334 Y61.268 F9000
G1 F1800
G1 X108.331 Y61.2 E.00248
G1 X109.029 Y60.335 F9000
G1 F1800
G1 X109.097 Y60.381 E.00296
G2 X108.931 Y60.86 I.087 J.299 E.02139
G1 X108.439 Y61.005 E.01852
G2 X108.462 Y60.228 I-.252 J-.397 E.03308
G1 X108.962 Y60.323 E.01838
G1 X108.199 Y60.051 F9000
G1 F1800
G1 X108.062 Y59.959 E.00597
G1 X108.188 Y59.825 E.00665
G1 X108.196 Y59.983 E.00572
G1 X107.651 Y59.973 F9000
G1 F1800
G1 X107.486 Y60.098 E.00745
G1 X107.478 Y59.825 E.00984
G1 X107.599 Y59.928 E.00573
G1 X107.091 Y60.398 F9000
G1 F1800
G2 X107.559 Y61.235 I.77 J.119 E.0373
G1 X107.35 Y61.394 E.00947
G1 X107.35 Y61.055 E.01225
G1 X106.584 Y60.904 E.02819
G3 X106.646 Y60.431 I.231 J-.21 E.01958
G1 X107.259 Y60.27 E.02288
G1 X107.145 Y60.357 E.00516
G1 E-1.2 F2400
;WIPE_START
G1 F1800
G1 X107.259 Y60.27
G1 X106.646 Y60.431
G1 X106.484 Y60.673
G1 X106.584 Y60.904
G1 X107.252 Y61.036
;WIPE_END
G1 X106.977 Y61.678 Z.4 F9000
G1 Z.2
G1 E1.2 F1800
G2 X107.369 Y62.447 I.705 J.125 E.03341
G2 X106.869 Y63.171 I.034 J.558 E.03658
G1 X106.557 Y63.253 E.01166
G3 X107.043 Y62.693 I.4 J-.144 E.03253
G1 X107.031 Y62.294 E.0144
G3 X106.598 Y61.692 I-.134 J-.36 E.03615
G1 X107.147 Y61.549 E.02048
G1 X107.031 Y61.637 E.00522
G1 E-1.2 F2400
;WIPE_START
G1 F1800
G1 X107.147 Y61.549
G1 X106.598 Y61.692
G1 X106.486 Y61.949
G1 X106.59 Y62.192
G1 X107.031 Y62.294
G1 X107.039 Y62.585
;WIPE_END
G1 X109.581 Y60.923 Z.4 F9000
G1 Z.2
G1 E1.2 F1800
;TYPE:Support interface
;WIDTH:0.4
G3 X109.329 Y61.182 I-.756 J-.485 E.01027
G3 X109.681 Y61.545 I-.117 J.467 E.01502
G1 E-1.2 F2400
;WIPE_START
G1 F1800
G1 X109.329 Y61.182
G1 X109.581 Y60.923
;WIPE_END
G1 X108.828 Y59.1 Z.4 F9000
G1 Z.2
G1 E1.2 F1800
;TYPE:Support
;WIDTH:0.5
G1 X108.87 Y59.129 E.00185
G2 X108.972 Y59.523 I.229 J.151 E.01655
G3 X108.24 Y59.77 I-.588 J-.534 E.02913
G2 X108.257 Y58.993 I-.255 J-.394 E.03305
G1 X108.76 Y59.087 E.01848
G1 E-1.2 F2400
;WIPE_START
G1 F1800
G1 X108.257 Y58.993
G1 X108.427 Y59.107
G1 X108.474 Y59.521
G1 X108.24 Y59.77
G1 X108.737 Y59.602
;WIPE_END
G1 X108.256 Y57.896 Z.4 F9000
G1 Z.2
G1 E1.2 F1800
G3 X108.98 Y58.196 I.01 J1 E.02906
G3 X108.21 Y58.594 I-.743 J-.492 E.0327
G1 X108.216 Y58.965 E.0134
G2 X107.456 Y59.807 I-.418 J.387 E.06833
G3 X106.482 Y59.432 I-.24 J-.828 E.04047
G3 X107.35 Y59.029 I.831 J.652 E.03586
G1 X107.35 Y58.625 E.01458
G3 X106.521 Y58.294 I-.106 J-.94 E.03356
G3 X107.47 Y57.881 I.979 J.954 E.03833
G2 X108.242 Y57.974 I.349 J.357 E.08101
G1 X108.074 Y57.862 E.00727
G1 X108.189 Y57.884 E.00422
G1 X108.878 Y57.436 F9000
;TYPE:Support interface
;WIDTH:0.4
G1 F1800
G3 X108.738 Y57.552 I-.294 J-.213 E.00519
G3 X109.003 Y57.695 I-.132 J.563 E.0086
G3 X109.246 Y57.061 I.443 J-.193 E.02121
G2 X109.003 Y56.568 I-.327 J-.146 E.01771
G1 X109.003 Y32.828 E.66963
G1 X109.86 Y32.828 E.02418
G1 X109.86 Y62.852 E.84687
G3 X109.86 Y66.091 I-87.454 J1.62 E.09138
G1 X110.717 Y66.059 E.02419
G1 X110.717 Y32.828 E.93733
G1 X111.003 Y32.828 E.00806
M73 P2 R36
G1 X111.003 Y66.048 E.93703
G1 X110.895 Y66.052 E.00303
G1 E-1.2 F2400
;WIPE_START
G1 F1800
G1 X111.003 Y66.048
G1 X111.003 Y64.155
;WIPE_END
G1 X114.707 Y65.075 Z.4 F9000
G1 X119.146 Y66.178 Z.4
G1 Z.2
G1 E1.2 F1800
;TYPE:Support
;WIDTH:0.5
G1 X121.135 Y66.161 E.07184
G3 X121.146 Y67.941 I-11.797 J.958 E.06434
G1 X120.819 Y67.954 E.01178
G1 X120.849 Y67.484 E.01699
G1 X117.646 Y66.961 E.11717
G1 X117.646 Y64.233 E.09852
G1 X119.146 Y64.176 E.05419
G1 X119.146 Y66.109 E.06979
G1 X120.335 Y67.192 F9000
G1 F1800
G1 X120.335 Y66.544 E.02338
G1 X119.827 Y66.563 E.01835
G1 X119.827 Y66.901 E.01217
G1 X119.319 Y66.818 E.01858
G1 X119.319 Y66.583 E.00849
G1 X118.811 Y66.602 E.01835
G1 X118.811 Y66.735 E.0048
G1 X118.303 Y66.652 E.01858
G1 X118.303 Y64.414 E.08081
G1 E-1.2 F2400
;WIPE_START
G1 F1800
G1 X118.303 Y66.414
;WIPE_END
G1 X119.966 Y64.256 Z.4 F9000
G1 Z.2
G1 E1.2 F1800
;TYPE:Support interface
;WIDTH:0.4
G1 X119.574 Y64.256 E.01106
G1 X119.574 Y65.732 E.04165
G1 X120.145 Y65.711 E.01611
G1 X120.145 Y64.256 E.04105
G1 X120.823 Y64.256 E.01914
G1 E-1.2 F2400
;WIPE_START
G1 F1800
G1 X120.145 Y64.256
G1 X120.145 Y65.577
;WIPE_END
G1 X121.573 Y66.416 Z.4 F9000
G1 Z.2
G1 E1.2 F1800
G2 X121.002 Y65.679 I-.554 J-.161 E.03066
G1 X121.002 Y64.256 E.04013
G1 X121.859 Y64.256 E.02418
G1 X121.859 Y78.541 E.40295
G1 X121.002 Y78.541 E.02418
G1 X121.002 Y68.376 E.28673
G1 X120.145 Y68.408 E.02419
G1 X120.145 Y78.541 E.28582
G1 X119.574 Y78.541 E.0161
G1 X119.574 Y68.43 E.28521
G1 X119.967 Y68.415 E.01108
G1 E-1.2 F2400
;WIPE_START
G1 F1800
G1 X119.574 Y68.43
G1 X119.574 Y70.037
;WIPE_END
G1 X119.145 Y70.148 Z.4 F9000
G1 Z.2
G1 E1.2 F1800
;TYPE:Support
;WIDTH:0.5
G1 X119.146 Y71.898 E.06318
G1 X115.788 Y71.898 E.12121
G1 X115.788 Y105.183 E1.20179
G1 X118.646 Y105.183 E.10316
G1 X118.646 Y162.968 E2.08636
G1 X117.146 Y162.968 E.05415
G1 X117.146 Y160.968 E.07221
G1 X114.289 Y160.968 E.10316
G1 X114.289 Y158.111 E.10316
G1 X111.432 Y158.111 E.10316
G1 X111.432 Y155.254 E.10316
G1 X105.717 Y155.254 E.20632
G1 X105.717 Y152.397 E.10316
G1 X102.003 Y152.397 E.13411
G1 X102.003 Y154.397 E.07221
G1 X100.503 Y154.397 E.05415
G1 X100.503 Y146.182 E.29658
G1 X97.646 Y146.182 E.10316
G1 X97.646 Y85.184 E2.20241
G1 X100.503 Y85.184 E.10316
G1 X100.503 Y71.898 E.47969
G1 X95.146 Y71.898 E.19342
G1 X95.146 Y70.926 E.03511
G3 X93.953 Y70.399 I-.333 J-.86 E.05231
G1 X97.146 Y70.399 E.11529
G1 X97.146 Y69.191 E.04359
G1 X119.145 Y68.36 E.79488
G1 X119.145 Y70.08 E.06211
G1 X118.303 Y71.693 F9000
G1 F1800
G1 X118.303 Y68.803 E.10433
G1 X117.795 Y68.822 E.01835
G1 X117.795 Y71.487 E.09621
G1 X117.287 Y71.487 E.01834
G1 X117.287 Y68.841 E.09552
G1 X116.78 Y68.861 E.01835
G1 X116.78 Y71.487 E.09483
G1 X116.272 Y71.487 E.01834
G1 X116.272 Y68.88 E.09413
G1 X115.764 Y68.899 E.01835
G1 X115.764 Y71.487 E.09344
G1 X115.377 Y71.487 E.01396
G1 X115.377 Y105.595 E1.2315
G1 X115.764 Y105.595 E.01396
G1 X115.764 Y160.556 E1.98444
G1 X115.256 Y160.556 E.01834
G1 X115.256 Y68.918 E3.30869
G1 X114.748 Y68.937 E.01835
M73 P3 R36
G1 X114.7 Y160.556 E3.308
G1 X114.7 Y157.699 E.10316
G1 X114.24 Y157.699 E.0166
G1 X114.24 Y68.957 E3.20414
G1 X113.732 Y68.976 E.01835
G1 X113.732 Y157.699 E3.20345
G1 X113.224 Y157.699 E.01834
G1 X113.224 Y68.995 E3.20276
G1 X112.717 Y69.014 E.01835
G1 X112.717 Y157.699 E3.20206
G1 X112.209 Y157.699 E.01834
M73 P3 R35
G1 X112.209 Y69.033 E3.20137
G1 X111.701 Y69.053 E.01835
G1 X111.701 Y154.842 E3.09752
G1 X111.193 Y154.842 E.01834
G1 X111.193 Y69.072 E3.09683
G1 X110.685 Y69.091 E.01835
M73 P4 R35
G1 X110.685 Y154.842 E3.09613
G1 X110.177 Y154.842 E.01834
G1 X110.177 Y69.11 E3.09544
G1 X109.669 Y69.129 E.01835
G1 X109.669 Y154.842 E3.09475
G1 X109.162 Y154.842 E.01834
G1 X109.162 Y69.149 E3.09405
G1 X108.654 Y69.168 E.01835
G1 X108.654 Y154.842 E3.09336
G1 X108.146 Y154.842 E.01834
G1 X108.146 Y69.187 E3.09267
G1 X107.638 Y69.206 E.01835
G1 X107.638 Y154.842 E3.09197
G1 X107.13 Y154.842 E.01834
M73 P5 R35
G1 X107.13 Y69.225 E3.09128
G1 X106.622 Y69.245 E.01835
G1 X106.622 Y154.842 E3.09059
G1 X106.129 Y154.842 E.01782
G1 X106.114 Y69.264 E3.0899
G1 X105.606 Y69.283 E.01835
G1 X105.606 Y151.985 E2.98604
G1 X105.099 Y151.985 E.01834
G1 X105.099 Y69.302 E2.98535
G1 X104.591 Y69.321 E.01835
G1 X104.591 Y151.985 E2.98466
G1 X104.083 Y151.985 E.01834
G1 X104.083 Y69.341 E2.98396
G1 X103.575 Y69.36 E.01835
G1 X103.575 Y151.985 E2.98327
G1 X103.067 Y151.985 E.01834
M73 P6 R35
G1 X103.067 Y69.379 E2.98258
G1 X102.559 Y69.398 E.01835
G1 X102.559 Y151.985 E2.98189
G1 X102.051 Y151.985 E.01834
G1 X102.051 Y69.417 E2.98119
G1 X101.544 Y69.437 E.01835
M73 P6 R34
G1 X101.544 Y153.985 E3.05271
G1 X101.036 Y153.985 E.01834
G1 X101.036 Y69.456 E3.05202
G1 X100.528 Y69.475 E.01835
G1 X100.528 Y71.487 E.07264
G1 X100.02 Y71.487 E.01834
G1 X100.02 Y69.494 E.07195
G1 X99.512 Y69.513 E.01835
G1 X99.512 Y71.487 E.07126
G1 X99.004 Y71.487 E.01834
G1 X99.004 Y69.533 E.07056
G1 X98.496 Y69.552 E.01835
G1 X98.496 Y71.487 E.06987
G1 X97.989 Y71.487 E.01834
G1 X97.989 Y69.571 E.06918
G1 X97.558 Y69.587 E.01557
G1 X97.481 Y71.487 E.06864
G1 X96.973 Y71.487 E.01834
G1 X96.973 Y70.81 E.02445
G1 X96.465 Y70.81 E.01834
G1 X96.465 Y71.487 E.02445
G1 X95.957 Y71.487 E.01834
G1 X95.957 Y70.604 E.03187
G1 E-1.2 F2400
;WIPE_START
G1 F1800
G1 X95.957 Y71.487
G1 X96.465 Y71.487
G1 X96.465 Y70.878
;WIPE_END
G1 X97.328 Y74.595 Z.4 F9000
G1 X117.795 Y162.762 Z.4
G1 Z.2
G1 E1.2 F1800
G1 X117.795 Y105.595 E2.06408
G1 X117.287 Y105.595 E.01834
G1 X117.287 Y160.556 E1.98444
G1 X116.78 Y160.556 E.01834
G1 X116.78 Y105.595 E1.98444
G1 X116.272 Y105.595 E.01834
G1 X116.272 Y160.762 E1.99187
G1 E-1.2 F2400
;WIPE_START
M73 P7 R34
G1 F1800
G1 X116.272 Y158.762
;WIPE_END
G1 X113.309 Y156.356 Z.4 F9000
